dealnox/img/sprite/icon-twitter.svg

<svg width="42" height="39" viewBox="0 0 42 39" fill="none" xmlns="http://www.w3.org/2000/svg">
<path d="M42 4.62611C40.4555 5.40786 38.7963 5.93608 37.052 6.17483C38.8518 4.94471 40.1983 3.00866 40.8402 0.727914C39.1493 1.87517 37.2986 2.68271 35.3687 3.11543C34.0709 1.53262 32.3519 0.483513 30.4786 0.13098C28.6053 -0.221552 26.6826 0.142215 25.0088 1.16581C23.3351 2.1894 22.004 3.81554 21.2223 5.79178C20.4405 7.76801 20.2519 9.98376 20.6855 12.095C17.2593 11.8985 13.9074 10.8813 10.8476 9.10937C7.78778 7.33744 5.08832 4.85041 2.92443 1.80969C2.18453 3.26755 1.75909 4.95783 1.75909 6.75797C1.75827 8.37851 2.10764 9.97423 2.77622 11.4036C3.4448 12.8329 4.41191 14.0516 5.59174 14.9516C4.22345 14.9019 2.88535 14.4795 1.6888 13.7198V13.8466C1.68867 16.1194 2.37697 18.3224 3.63691 20.0816C4.89686 21.8408 6.65084 23.0479 8.60125 23.498C7.33194 23.8904 6.00115 23.9482 4.70942 23.6671C5.25971 25.6227 6.33162 27.3329 7.7751 28.5581C9.21858 29.7834 10.9614 30.4624 12.7594 30.5C9.70708 33.237 5.93743 34.7217 2.0569 34.7151C1.36951 34.7153 0.682692 34.6695 0 34.5778C3.93896 37.4707 8.52419 39.0059 13.2071 39C29.0593 39 37.7253 24.003 37.7253 10.9963C37.7253 10.5738 37.716 10.147 37.6994 9.72441C39.385 8.33199 40.8401 6.60774 41.9963 4.63245L42 4.62611Z" fill="#968E8E"/>
</svg>

<svg width="42" height="39" fill="none" xmlns="http://www.w3.org/2000/svg"><path d="M42 4.626a15.613 15.613 0 0 1-4.948 1.549c1.8-1.23 3.146-3.166 3.788-5.447a15.968 15.968 0 0 1-5.471 2.387C34.07 1.533 32.352.484 30.479.131c-1.874-.353-3.796.011-5.47 1.035-1.674 1.023-3.005 2.65-3.787 4.626a11.141 11.141 0 0 0-.537 6.303c-3.426-.197-6.778-1.214-9.837-2.986-3.06-1.772-5.76-4.259-7.924-7.3A10.93 10.93 0 0 0 1.76 6.759c0 1.62.349 3.216 1.017 4.646.669 1.429 1.636 2.648 2.816 3.548a7.797 7.797 0 0 1-3.903-1.232v.127c0 2.272.688 4.475 1.948 6.235 1.26 1.759 3.014 2.966 4.964 3.416-1.27.392-2.6.45-3.892.17.55 1.955 1.623 3.665 3.066 4.89 1.444 1.225 3.186 1.904 4.984 1.942-3.052 2.737-6.822 4.222-10.702 4.215-.687 0-1.374-.046-2.057-.137C3.939 37.47 8.524 39.006 13.207 39c15.852 0 24.518-14.997 24.518-28.004 0-.422-.009-.849-.026-1.272 1.686-1.392 3.141-3.116 4.297-5.092L42 4.626z" fill="#968E8E"/></svg>
